server/website/public/icons/base/nutrition.svg

<svg width="57" height="48" viewBox="0 0 57 48" fill="none" xmlns="http://www.w3.org/2000/svg">
<path d="M5.09863 23.4302C5.09863 27.3846 5.66465 30.2109 7.93128 33.6007C9.65355 35.8915 11.9546 36.4652 14.4073 34.8602C14.9504 34.5185 15.6439 34.5185 16.1883 34.8602C18.6397 36.4664 20.9408 35.8915 22.6631 33.6007C24.9297 30.2096 25.4957 27.3846 25.4957 23.4314C25.4957 20.0392 22.9588 16.6494 19.8304 16.6494C18.2152 16.6494 16.7581 17.5329 15.7255 18.4851C15.6082 18.5916 15.4555 18.6505 15.2972 18.6505C15.1388 18.6505 14.9861 18.5916 14.8688 18.4851C13.8375 17.5341 12.3791 16.6494 10.7639 16.6494C7.63552 16.6494 5.09863 20.0404 5.09863 23.4302Z" stroke="black" stroke-width="3.2" stroke-linecap="round" stroke-linejoin="round"/>
<path d="M8.92285 24.2985C8.92285 22.4246 9.50162 21.3155 10.8351 20.4741M15.2969 17.9245C15.2969 16.3947 16.4022 12.8252 19.1214 12.8252" stroke="black" stroke-width="3.2" stroke-linecap="round" stroke-linejoin="round"/>
<path d="M32.8281 13.3018H50.7552L48.365 37.2046H35.2184L32.8281 13.3018ZM35.4574 15.692L37.3697 34.8143H38.5648L36.9275 18.4887C38.2063 18.0823 39.8675 17.9509 41.1941 19.2775C43.0585 21.1419 46.3691 20.1021 47.7674 19.5523L48.1259 15.692H35.4574Z" fill="black"/>
</svg>

<svg width="57" height="48" fill="none" xmlns="http://www.w3.org/2000/svg"><path d="M5.099 23.43c0 3.955.566 6.78 2.832 10.17 1.723 2.291 4.024 2.865 6.476 1.26a1.675 1.675 0 011.781 0c2.452 1.606 4.753 1.032 6.475-1.26 2.267-3.39 2.833-6.215 2.833-10.169 0-3.392-2.537-6.782-5.666-6.782-1.615 0-3.072.884-4.104 1.836a.637.637 0 01-.857 0c-1.031-.95-2.49-1.836-4.105-1.836-3.128 0-5.665 3.391-5.665 6.781z" stroke="#000" stroke-width="3.2" stroke-linecap="round" stroke-linejoin="round"/><path d="M8.923 24.299c0-1.874.579-2.983 1.912-3.825m4.462-2.55c0-1.53 1.105-5.099 3.824-5.099" stroke="#000" stroke-width="3.2" stroke-linecap="round" stroke-linejoin="round"/><path d="M32.828 13.302h17.927l-2.39 23.903H35.218l-2.39-23.903zm2.63 2.39l1.912 19.122h1.195L36.928 18.49c1.278-.407 2.94-.538 4.266.788 1.864 1.865 5.175.825 6.573.275l.359-3.86H35.457z" fill="#000"/></svg>
